X:0110
T:The Ranting Roaring Highlandman.
M:2/4
L:1/8
Q:1/4=84
I: :: (1) :: (2) ||
Z:Jack Campin * www.campin.me.uk * 2009
K:A Mixolydian
e |A/A/A  ed |cdec|(d/c/B/A/) GB     |gBBa|
   A/A/A (ed)|cdec| dB^gB            |aAA:|
g |aefd      |cdec|(d/c/B/A/) GB     |gBBg|
[1 aefd      |cdec| dBgB             |aAA:|
[2 afge      |dBec| dB       ^g(f/g/)|aAA|]
<end>
<start>
